src/assets/svg/icons/azure-icon.svg

<svg width="80px" height="80px" viewBox="0 0 101 95" fill="none" xmlns="http://www.w3.org/2000/svg">
<path d="M33.9949 0.642881H63.5856L32.8673 91.7112C32.7102 92.1763 32.4816 92.6141 32.1897 93.0088C31.8985 93.4039 31.5472 93.7501 31.1484 94.0364C30.7496 94.3227 30.3096 94.5452 29.8421 94.6952C29.3745 94.8452 28.887 94.9227 28.397 94.9227H5.36796C4.62041 94.9227 3.88286 94.7452 3.21782 94.4027C2.55207 94.0611 1.97738 93.5657 1.54145 92.9576C1.10525 92.3494 0.819881 91.6463 0.7089 90.9062C0.597642 90.1661 0.665147 89.4098 0.903913 88.701L29.5233 3.85184C29.6796 3.38681 29.9083 2.94928 30.2009 2.55425C30.4921 2.15923 30.8446 1.81296 31.2422 1.52669C31.6409 1.24042 32.081 1.01791 32.5485 0.867896C33.016 0.717886 33.5036 0.640381 33.9936 0.640381V0.641631L33.9949 0.642881Z" fill="url(#paint0_linear_301_8381)"/>
<path d="M88.5434 94.9228H61.9729C61.6766 94.9228 61.3803 94.8953 61.0878 94.839C60.7966 94.784 60.5103 94.7015 60.234 94.5928C59.9577 94.484 59.6927 94.349 59.4415 94.1915C59.1905 94.0329 58.9549 93.8513 58.7377 93.6489L28.5857 65.4896C28.2668 65.1918 28.0447 64.8051 27.9482 64.3795C27.8517 63.954 27.8857 63.5092 28.0455 63.1032C28.2054 62.6972 28.4838 62.3487 28.8445 62.1031C29.2057 61.8581 29.632 61.7269 30.0683 61.7269H76.9914L88.5409 94.924L88.5434 94.9228Z" fill="#0078D4"/>
<path d="M63.6918 0.642881L42.9779 61.7332L76.8226 61.7257L88.4321 94.9229H61.9617C61.6879 94.9204 61.4141 94.8954 61.1441 94.8466C60.8741 94.7979 60.6091 94.7266 60.3516 94.6316C59.8352 94.4434 59.3549 94.1682 58.9315 93.8178L38.5776 74.8215L32.8798 91.6252C32.7322 92.0452 32.5297 92.444 32.2772 92.8102C31.7711 93.5471 31.0788 94.1367 30.2708 94.5191C29.8686 94.7094 29.4427 94.8452 29.0045 94.9229H5.3817C4.62665 94.9254 3.8816 94.7454 3.21031 94.3978C2.53891 94.0506 1.96098 93.5468 1.52538 92.9291C1.08977 92.3114 0.809287 91.5979 0.707644 90.8488C0.606368 90.0995 0.686538 89.3368 0.941409 88.625L29.5145 3.9156C29.6633 3.44182 29.8871 2.99554 30.1771 2.59301C30.4658 2.19048 30.8184 1.83546 31.2184 1.54294C31.6184 1.25042 32.0634 1.02291 32.5347 0.870396C33.006 0.717886 33.4998 0.640381 33.9961 0.642881H63.693H63.6918Z" fill="url(#paint1_linear_301_8381)"/>
<path d="M100.409 88.7012C100.648 89.4104 100.715 90.1661 100.605 90.9064C100.494 91.6462 100.209 92.3492 99.7741 92.9577C99.3381 93.5655 98.7636 94.0607 98.0982 94.4025C97.4328 94.7442 96.6956 94.9226 95.9476 94.9229H62.9679C63.7155 94.9229 64.453 94.7441 65.1193 94.4028C65.7844 94.0616 66.3594 93.5653 66.7957 92.9577C67.232 92.3502 67.517 91.6464 67.6282 90.9064C67.7395 90.1663 67.672 89.41 67.4332 88.7012L38.8126 3.84935C38.4975 2.91464 37.8972 2.10229 37.0962 1.52669C36.6987 1.24042 36.2586 1.01916 35.7924 0.869148C35.3261 0.719138 34.8385 0.642883 34.3498 0.642883H67.3282C67.8182 0.642883 68.3045 0.719138 68.7721 0.869148C69.2383 1.01916 69.6784 1.24167 70.0771 1.52669C70.4747 1.81296 70.8259 2.15923 71.1172 2.55301C71.4085 2.94679 71.636 3.38431 71.7935 3.84935L100.414 88.7012H100.409Z" fill="url(#paint2_linear_301_8381)"/>
<defs>
<linearGradient id="paint0_linear_301_8381" x1="44.7943" y1="7.63083" x2="14.0424" y2="98.4742" gradientUnits="userSpaceOnUse">
<stop stop-color="#114A8B"/>
<stop offset="1" stop-color="#0669BC"/>
</linearGradient>
<linearGradient id="paint1_linear_301_8381" x1="54.3824" y1="49.9586" x2="47.2694" y2="52.3713" gradientUnits="userSpaceOnUse">
<stop stop-opacity="0.3"/>
<stop offset="0.1" stop-opacity="0.2"/>
<stop offset="0.3" stop-opacity="0.1"/>
<stop offset="0.6" stop-opacity="0.1"/>
<stop offset="1" stop-opacity="0"/>
</linearGradient>
<linearGradient id="paint2_linear_301_8381" x1="50.4571" y1="4.98067" x2="84.2093" y2="94.8991" gradientUnits="userSpaceOnUse">
<stop stop-color="#3CCBF4"/>
<stop offset="1" stop-color="#2892DF"/>
</linearGradient>
</defs>
</svg>

<svg xmlns="http://www.w3.org/2000/svg" width="80" height="80" viewBox="0 0 101 95" fill="none" xmlns:v="https://vecta.io/nano"><path d="M33.995.643h29.591L32.867 91.711c-.157.465-.386.903-.678 1.298a4.69 4.69 0 0 1-1.041 1.028c-.399.286-.839.509-1.306.659a4.73 4.73 0 0 1-1.445.228H5.368c-.748 0-1.485-.178-2.15-.52s-1.24-.837-1.676-1.445a4.72 4.72 0 0 1-.833-2.051c-.111-.74-.044-1.496.195-2.205L29.523 3.852a4.69 4.69 0 0 1 .678-1.298c.291-.395.644-.741 1.041-1.028s.839-.509 1.306-.659A4.73 4.73 0 0 1 33.994.64v.001l.001.001z" fill="url(#A)"/><path d="M88.543 94.923H61.973a4.68 4.68 0 0 1-.885-.084c-.291-.055-.578-.138-.854-.246a4.81 4.81 0 0 1-.793-.401 4.77 4.77 0 0 1-.704-.543L28.586 65.49a2.18 2.18 0 0 1-.637-1.11c-.096-.425-.062-.87.097-1.276s.438-.755.799-1a2.18 2.18 0 0 1 1.224-.376h46.923l11.549 33.197.003-.001z" fill="#0078d4"/><path d="M63.692.643l-20.714 61.09 33.845-.007 11.61 33.197h-26.47c-.274-.002-.548-.028-.818-.076s-.535-.12-.793-.215a4.81 4.81 0 0 1-1.42-.814L38.578 74.822 32.88 91.625a5.02 5.02 0 0 1-.603 1.185 5.06 5.06 0 0 1-2.006 1.709c-.402.19-.828.326-1.266.404H5.382a4.69 4.69 0 0 1-2.171-.525 4.71 4.71 0 0 1-2.503-3.549 4.72 4.72 0 0 1 .234-2.224L29.515 3.916a4.64 4.64 0 0 1 .663-1.323 4.69 4.69 0 0 1 1.041-1.05c.4-.293.845-.52 1.316-.673S33.5.64 33.996.643h29.697-.001z" fill="url(#B)"/><path d="M100.409 88.701a4.73 4.73 0 0 1 .196 2.205c-.111.74-.396 1.443-.831 2.051a4.71 4.71 0 0 1-3.827 1.965h-32.98a4.72 4.72 0 0 0 2.151-.52c.665-.341 1.24-.838 1.676-1.445a4.72 4.72 0 0 0 .833-2.051c.111-.74.044-1.496-.195-2.205L38.813 3.849c-.315-.935-.915-1.747-1.716-2.323-.398-.286-.838-.508-1.304-.658S34.839.643 34.35.643h32.978c.49 0 .976.076 1.444.226s.906.373 1.305.658.749.633 1.04 1.026a4.73 4.73 0 0 1 .676 1.296l28.621 84.852h-.005z" fill="url(#C)"/><defs><linearGradient id="A" x1="44.794" y1="7.631" x2="14.042" y2="98.474" gradientUnits="userSpaceOnUse"><stop stop-color="#114a8b"/><stop offset="1" stop-color="#0669bc"/></linearGradient><linearGradient id="B" x1="54.382" y1="49.959" x2="47.269" y2="52.371" gradientUnits="userSpaceOnUse"><stop stop-opacity=".3"/><stop offset=".1" stop-opacity=".2"/><stop offset=".3" stop-opacity=".1"/><stop offset=".6" stop-opacity=".1"/><stop offset="1" stop-opacity="0"/></linearGradient><linearGradient id="C" x1="50.457" y1="4.981" x2="84.209" y2="94.899" gradientUnits="userSpaceOnUse"><stop stop-color="#3ccbf4"/><stop offset="1" stop-color="#2892df"/></linearGradient></defs></svg>
